tools/download-figma-icons/icons/outlined-medium/lock.svg

<svg width="24" height="24" viewBox="0 0 24 24" fill="none" xmlns="http://www.w3.org/2000/svg">
<path fill-rule="evenodd" clip-rule="evenodd" d="M18.2989 22.5C18.9611 22.5 19.4996 21.9615 19.4996 21.2993V11.9215C19.4996 11.2593 18.9611 10.7215 18.2989 10.7215H5.69988C5.0384 10.7215 4.49991 11.2593 4.49991 11.9215V21.2993C4.49991 21.9615 5.0384 22.5 5.69988 22.5H18.2989ZM12.0845 1.50046C10.0573 1.50046 8.40809 3.14967 8.40809 5.17613V9.22155H15.7602V5.17613C15.7602 3.14967 14.111 1.50046 12.0845 1.50046ZM17.2601 9.22155H18.2989C19.7883 9.22155 20.9996 10.4328 20.9996 11.9215V21.2993C20.9996 22.788 19.7883 24 18.2989 24H5.69988C4.21116 24 2.99994 22.788 2.99994 21.2993V11.9215C2.99994 10.4328 4.21116 9.22155 5.69988 9.22155H6.90811V5.17613C6.90811 2.32169 9.23006 0.000488271 12.0845 0.000488271C14.9382 0.000488271 17.2601 2.32169 17.2601 5.17613V9.22155ZM11.2498 14.7355C11.2498 14.3208 11.5858 13.9855 11.9998 13.9855C12.4137 13.9855 12.7497 14.3208 12.7497 14.7355V18.4854C12.7497 18.9002 12.4137 19.2354 11.9998 19.2354C11.5858 19.2354 11.2498 18.9002 11.2498 18.4854V14.7355Z" fill="black"/>
</svg>

<svg xmlns="http://www.w3.org/2000/svg" width="24" height="24" fill="none" viewBox="0 0 24 24"><path fill="currentColor" fill-rule="evenodd" d="M18.299 22.5c.662 0 1.2-.538 1.2-1.2v-9.378a1.2 1.2 0 0 0-1.2-1.2h-12.6c-.66 0-1.2.537-1.2 1.2v9.377c0 .663.54 1.201 1.2 1.201zm-6.214-21a3.68 3.68 0 0 0-3.677 3.676v4.046h7.352V5.176A3.68 3.68 0 0 0 12.085 1.5m5.175 7.722h1.04c1.49 0 2.7 1.21 2.7 2.7v9.377A2.703 2.703 0 0 1 18.3 24H5.7A2.704 2.704 0 0 1 3 21.3v-9.378c0-1.49 1.212-2.7 2.7-2.7h1.21V5.176A5.18 5.18 0 0 1 12.084 0a5.18 5.18 0 0 1 5.175 5.176zm-6.01 5.514a.75.75 0 1 1 1.5 0v3.75a.75.75 0 1 1-1.5 0z" clip-rule="evenodd"/></svg>
